X:1
T:Title
%%score 1 { ( 2 3 ) | ( 4 5 6 ) }
L:1/8
Q:1/4=100
M:4/4
K:Bb
V:1 treble nm="Choir Aahs"
V:2 bass nm="Grand Piano"
V:3 bass 
V:4 bass 
V:5 bass 
V:6 bass 
V:1
 F2 D>E F2 d2 | c4 B2 A2 | G2 G>A B2 c2 | F6 F2 | F2 E>D E2 G2 | F2 E2 D2 D2 | C2 A2 G2 A2 | %7
w: R.~H.~Woodman * * * *|||||||
 F6 F2 | G2 G2 G2 c2 | F4 F2 B2 | E2 E2 E2 A2 | D6 D2 | D2 B2 A2 B2 | d4 F2 F2 | G2 d2 c3 d | B8 |] %16
w: |||||||||
V:2
 [F,B,DF]2 D>[K:treble]E F2 [DFd]2 | c4 B2 A2 | [EG]2 G>A B2 [Ec]2 | E2 z2 z4 | %4
 z2[K:bass] E2[K:treble] z4 | F2 E2 D2 [B,D]2 | [A,C]2 [CA]2 [B,DG]2 [B,=EA]2 | [CF]6 [A,CF]2 | %8
 [=B,FG]4 [CEG]2 [CEGc]2 | [EF]4 [DF]2 [B,DFB]2 | [DE]2- [CD-E-]>[B,DE] [CE]2 [A,CEA]2 | %11
 [A,CD]2 [CDA]2 [CD^F]2 [CD]2 | [B,D]2 [B,DB]2 [=EA]2 [EG]2 | [B,DFB]4 F2 F2 | [B,EG]2 d2 c3 d | %15
 [DFB]8 |] %16
V:3
 z2 [F,B,]2[K:treble] z4 | D6 z2 | x8 | [F,B,F]6 [_A,DF]2 | %4
 [A,EF]2[K:bass] [F,A,]->[F,A,D][K:treble] E2 G2 | x8 | x8 | x8 | x8 | C2 z2 z4 | B,2 z2 z4 | x8 | %12
 x8 | x8 | x8 | x8 |] %16
V:4
 B,,2 B,,>C, [D,F,B,]2 [B,,F,]2 | ^F,4 G,2 [=F,A,D]2 | z2 E2 z4 | z2 D>C D2 =B,,2 | %4
 C,2 C,>=B,, [C,F,A,]2 [E,A,C]2 | [D,F,B,]2 [C,F,A,]2 [B,,F,B,]2 [G,,F,]2 | %6
 [C,F,]2 [C,F,]2 C,2 C,2 | A,6 z2 | D,2 _D,2 C,2 B,,2 | z2 D>C [B,,B,]2 [A,,A,]2 | %10
 [G,,G,]4 [A,,A,]2 [G,,G,]2 | [^F,,^F,]2 [=F,,F,]2 [A,,A,]2 [D,F,]2 | %12
 [G,,G,]2 [G,,G,]2 [C,B,]2 [C,B,]2 | z4 [B,D]2 [F,B,D]2 | [F,,F,]2 [F,G,B,E]2 [F,A,EF]3 [F,A,EF] | %15
 [B,,B,]8 |] %16
V:5
 x8 | B,,8 | [E,B,]2 E,>F, [G,E]2 [B,,F,A,]2 | B,,6 z2 | x8 | x8 | x8 | z2 G,2 F,2 E,2 | x8 | %9
 A,,4 z4 | x8 | x8 | x8 | [F,,F,]6 z2 | x8 | x8 |] %16
V:6
 x8 | x8 | B,,6 z2 | x8 | x8 | x8 | x8 | x8 | x8 | x8 | x8 | x8 | x8 | x8 | x8 | x8 |] %16

